images/why_2.svg

<?xml version="1.0" encoding="iso-8859-1"?>
<!-- Generator: Adobe Illustrator 19.0.0, SVG Export Plug-In . SVG Version: 6.00 Build 0)  -->
<svg version="1.1" id="Capa_1" xmlns="http://www.w3.org/2000/svg" xmlns:xlink="http://www.w3.org/1999/xlink" x="0px" y="0px"
	 viewBox="0 0 512 512" style="enable-background:new 0 0 512 512;" xml:space="preserve">
<g>
	<g>
		<path d="M412.15,80.196c-1.621-2.142-4.147-3.396-6.818-3.396H166.399c-2.68,0-5.205,1.254-6.818,3.396
			c-1.613,2.142-2.125,4.907-1.391,7.484l16.649,58.257l-8.414,109.397c-0.247,3.183-0.367,6.366-0.358,9.557
			C166.262,330.641,219.818,384,285.524,384c0.12,0,0.23,0,0.341,0c3.26,0.017,6.349-0.111,9.523-0.35
			c65.673-5.077,114.995-62.635,109.918-128.307l-8.414-109.406l16.649-58.257C414.275,85.103,413.755,82.33,412.15,80.196z
			 M379.766,145.724l8.533,110.933c4.352,56.294-37.914,105.626-94.208,109.978c-2.722,0.205-5.41,0.341-8.192,0.299
			c-0.137,0-0.239,0-0.358,0c-56.329,0-102.229-45.739-102.4-102.093c-0.009-2.722,0.094-5.461,0.307-8.183l8.533-110.933
			c0.077-1.016-0.026-2.031-0.307-3.004l-13.961-48.853h216.303l-13.952,48.853C379.792,143.701,379.69,144.717,379.766,145.724z"/>
	</g>
</g>
<g>
	<g>
		<rect x="260.266" y="375.467" width="17.067" height="93.867"/>
	</g>
</g>
<g>
	<g>
		<path d="M345.599,460.8H226.132c-23.526,0-42.667,19.14-42.667,42.667c0,4.719,3.823,8.533,8.533,8.533h187.733
			c4.719,0,8.533-3.814,8.533-8.533C388.266,479.94,369.125,460.8,345.599,460.8z M201.991,494.933
			c3.524-9.933,13.013-17.067,24.141-17.067h119.467c11.127,0,20.617,7.134,24.141,17.067H201.991z"/>
	</g>
</g>
<g>
	<g>
		<rect x="294.399" y="375.467" width="17.067" height="93.867"/>
	</g>
</g>
<g>
	<g>
		<path d="M246.843,5.333C245.537,2.108,242.405,0,238.932,0H106.666c-4.71,0-8.533,3.823-8.533,8.533v128
			c0,3.422,2.048,6.519,5.205,7.859c1.075,0.452,2.202,0.674,3.328,0.674c2.167,0,4.309-0.828,5.939-2.398l132.267-128
			C247.372,12.245,248.148,8.55,246.843,5.333z M115.199,116.403V17.067h102.647L115.199,116.403z"/>
	</g>
</g>
<g>
	<g>
		
			<rect x="206.924" y="55.74" transform="matrix(0.7071 -0.7071 0.7071 0.7071 -16.8408 185.4668)" width="17.067" height="114.644"/>
	</g>
</g>
<g>
	<g>
		<rect x="183.466" y="145.067" width="204.8" height="17.067"/>
	</g>
</g>
<g>
	<g>
		
			<rect x="119.465" y="3.915" transform="matrix(0.9104 -0.4138 0.4138 0.9104 -11.4762 57.9329)" width="17.059" height="103.086"/>
	</g>
</g>
<g>
	<g>
		
			<rect x="149.331" y="-11.825" transform="matrix(0.3714 -0.9285 0.9285 0.3714 67.5485 168.0268)" width="17.067" height="91.906"/>
	</g>
</g>
<g>
	<g>
		<path d="M343.414,199.117c-1.562-1.749-3.78-2.782-6.118-2.842c-2.603-0.137-4.625,0.836-6.272,2.492l-102.4,102.4
			c-1.655,1.655-2.56,3.925-2.492,6.263c0.06,2.355,1.092,4.565,2.842,6.127c16.213,14.507,36.557,21.76,56.892,21.76
			c20.335,0,40.67-7.253,56.883-21.76c0.23-0.205,0.461-0.435,0.666-0.666C372.419,280.465,372.419,231.552,343.414,199.117z
			 M331.024,301.158c-23.654,20.864-58.061,22.622-83.524,5.274l88.798-88.798C353.646,243.098,351.879,277.513,331.024,301.158z"/>
	</g>
</g>
<g>
	<g>
		<path d="M356.197,264.789l-68.267-17.067c-2.893-0.725-5.982,0.128-8.098,2.244c-2.116,2.116-2.978,5.197-2.244,8.098
			l17.067,68.267l16.555-4.139l-13.619-54.477l54.477,13.619L356.197,264.789z"/>
	</g>
</g>
<g>
	<g>
		<rect x="209.066" y="238.933" width="17.067" height="17.067"/>
	</g>
</g>
<g>
	<g>
		<rect x="234.666" y="204.8" width="17.067" height="17.067"/>
	</g>
</g>
<g>
	<g>
		<rect x="362.666" width="17.067" height="51.2"/>
	</g>
</g>
<g>
	<g>
		<rect x="345.599" y="17.067" width="51.2" height="17.067"/>
	</g>
</g>
<g>
	<g>
		<rect x="302.932" y="34.133" width="17.067" height="17.067"/>
	</g>
</g>
<g>
</g>
<g>
</g>
<g>
</g>
<g>
</g>
<g>
</g>
<g>
</g>
<g>
</g>
<g>
</g>
<g>
</g>
<g>
</g>
<g>
</g>
<g>
</g>
<g>
</g>
<g>
</g>
<g>
</g>
</svg>

<svg width="512" height="512" viewBox="0 0 512 512" fill="none" xmlns="http://www.w3.org/2000/svg">
<path d="M412.15 80.1958C410.529 78.0538 408.003 76.7998 405.332 76.7998H166.399C163.719 76.7998 161.194 78.0538 159.581 80.1958C157.968 82.3378 157.456 85.1028 158.19 87.6798L174.839 145.937L166.425 255.334C166.178 258.517 166.058 261.7 166.067 264.891C166.262 330.641 219.818 384 285.524 384C285.644 384 285.754 384 285.865 384C289.125 384.017 292.214 383.889 295.388 383.65C361.061 378.573 410.383 321.015 405.306 255.343L396.892 145.937L413.541 87.6798C414.275 85.1028 413.755 82.3298 412.15 80.1958ZM379.766 145.724L388.299 256.657C392.651 312.951 350.385 362.283 294.091 366.635C291.369 366.84 288.681 366.976 285.899 366.934C285.762 366.934 285.66 366.934 285.541 366.934C229.212 366.934 183.312 321.195 183.141 264.841C183.132 262.119 183.235 259.38 183.448 256.658L191.981 145.725C192.058 144.709 191.955 143.694 191.674 142.721L177.713 93.8678H394.016L380.064 142.721C379.792 143.701 379.69 144.717 379.766 145.724Z" fill="#783178"/>
<path d="M277.333 375.467H260.266V469.334H277.333V375.467Z" fill="#783178"/>
<path d="M345.599 460.8H226.132C202.606 460.8 183.465 479.94 183.465 503.467C183.465 508.186 187.288 512 191.998 512H379.731C384.45 512 388.264 508.186 388.264 503.467C388.266 479.94 369.125 460.8 345.599 460.8ZM201.991 494.933C205.515 485 215.004 477.866 226.132 477.866H345.599C356.726 477.866 366.216 485 369.74 494.933H201.991Z" fill="#783178"/>
<path d="M311.466 375.467H294.399V469.334H311.466V375.467Z" fill="#783178"/>
<path d="M246.843 5.333C245.537 2.108 242.405 0 238.932 0H106.666C101.956 0 98.1331 3.823 98.1331 8.533V136.533C98.1331 139.955 100.181 143.052 103.338 144.392C104.413 144.844 105.54 145.066 106.666 145.066C108.833 145.066 110.975 144.238 112.605 142.668L244.872 14.668C247.372 12.245 248.148 8.55 246.843 5.333ZM115.199 116.403V17.067H217.846L115.199 116.403Z" fill="#783178"/>
<path d="M180.957 66.4964L168.889 78.5645L249.954 159.629L262.022 147.561L180.957 66.4964Z" fill="#783178"/>
<path d="M388.266 145.067H183.466V162.134H388.266V145.067Z" fill="#783178"/>
<path d="M114.435 5.00348L98.9048 12.0625L141.562 105.912L157.092 98.853L114.435 5.00348Z" fill="#783178"/>
<path d="M118.369 9.13425L112.031 24.981L197.365 59.1148L203.704 43.2681L118.369 9.13425Z" fill="#783178"/>
<path d="M343.414 199.117C341.852 197.368 339.634 196.335 337.296 196.275C334.693 196.138 332.671 197.111 331.024 198.767L228.624 301.167C226.969 302.822 226.064 305.092 226.132 307.43C226.192 309.785 227.224 311.995 228.974 313.557C245.187 328.064 265.531 335.317 285.866 335.317C306.201 335.317 326.536 328.064 342.749 313.557C342.979 313.352 343.21 313.122 343.415 312.891C372.419 280.465 372.419 231.552 343.414 199.117ZM331.024 301.158C307.37 322.022 272.963 323.78 247.5 306.432L336.298 217.634C353.646 243.098 351.879 277.513 331.024 301.158Z" fill="#783178"/>
<path d="M356.197 264.789L287.93 247.722C285.037 246.997 281.948 247.85 279.832 249.966C277.716 252.082 276.854 255.163 277.588 258.064L294.655 326.331L311.21 322.192L297.591 267.715L352.068 281.334L356.197 264.789Z" fill="#783178"/>
<path d="M226.133 238.933H209.066V256H226.133V238.933Z" fill="#783178"/>
<path d="M251.733 204.8H234.666V221.867H251.733V204.8Z" fill="#783178"/>
<path d="M379.733 0H362.666V51.2H379.733V0Z" fill="#783178"/>
<path d="M396.799 17.0669H345.599V34.1339H396.799V17.0669Z" fill="#783178"/>
<path d="M319.999 34.1328H302.932V51.1998H319.999V34.1328Z" fill="#783178"/>
</svg>
